app/[lang]/(home)/(new-home)/assets/stacks-appicons/react.svg

<svg width="16" height="16" viewBox="0 0 16 16" fill="none" xmlns="http://www.w3.org/2000/svg">
<path d="M6.75 7.99683C6.75 8.32835 6.8817 8.64629 7.11612 8.88071C7.35054 9.11513 7.66848 9.24683 8 9.24683C8.33152 9.24683 8.64946 9.11513 8.88388 8.88071C9.1183 8.64629 9.25 8.32835 9.25 7.99683C9.25 7.66531 9.1183 7.34736 8.88388 7.11294C8.64946 6.87852 8.33152 6.74683 8 6.74683C7.66848 6.74683 7.35054 6.87852 7.11612 7.11294C6.8817 7.34736 6.75 7.66531 6.75 7.99683Z" fill="#61DAFB"/>
<path d="M15.0078 7.99689C15.0078 7.01564 13.8547 6.16564 12.0625 5.65158C12.5141 3.8422 12.3547 2.41876 11.5047 1.92814C10.6531 1.43751 9.34063 2.01095 8 3.30626C6.65937 2.01095 5.34688 1.43751 4.49531 1.92814C3.64531 2.41876 3.48594 3.84376 3.9375 5.65158C2.14531 6.16564 0.992188 7.01564 0.992188 7.99689C0.992188 8.97814 2.14531 9.82814 3.9375 10.3422C3.48594 12.15 3.64531 13.575 4.49531 14.0656C4.70469 14.1875 4.94219 14.2469 5.20156 14.2469C5.82187 14.2469 6.57344 13.9063 7.38906 13.2438C7.59219 13.0781 7.79688 12.8906 8 12.6938C8.20312 12.8906 8.40781 13.0781 8.61094 13.2438C9.42656 13.9063 10.1766 14.2469 10.7984 14.2469C11.0578 14.2469 11.2953 14.1875 11.5047 14.0656C12.3547 13.575 12.5141 12.1516 12.0625 10.3422C13.8547 9.82814 15.0078 8.97814 15.0078 7.99689ZM11.2 2.45626C11.7516 2.77501 11.8672 3.9297 11.475 5.50001C10.9016 5.36876 10.2766 5.27033 9.61094 5.20939C9.225 4.66408 8.82656 4.17189 8.42656 3.74064C9.35156 2.84533 10.2109 2.35939 10.8016 2.35939C10.9516 2.35783 11.0859 2.39064 11.2 2.45626ZM9.95312 9.12501C9.7375 9.50001 9.50938 9.85939 9.27656 10.2031C8.86875 10.2344 8.44375 10.2516 8 10.2516C7.55781 10.2516 7.13281 10.2344 6.725 10.2031C6.49062 9.85939 6.26406 9.49845 6.04844 9.12501C5.82813 8.7422 5.63125 8.36564 5.45312 7.99689C5.63125 7.62814 5.82813 7.25158 6.04844 6.86876C6.26875 6.48595 6.49688 6.12814 6.72656 5.78908C7.13438 5.75783 7.55937 5.74064 8.00156 5.74064C8.44375 5.74064 8.86875 5.75783 9.27656 5.78908C9.50625 6.12658 9.73437 6.48595 9.95469 6.8672C10.175 7.25001 10.3719 7.62658 10.55 7.99533C10.3703 8.36564 10.1734 8.7422 9.95312 9.12501ZM10.8719 8.71251C11.0469 9.12814 11.1906 9.52658 11.3094 9.90783C10.9203 9.99533 10.5016 10.0703 10.0547 10.1266C10.2 9.90001 10.3422 9.66876 10.4812 9.4297C10.6187 9.18908 10.7484 8.95001 10.8719 8.71251ZM8 11.8203C7.72344 11.5203 7.45156 11.1938 7.18437 10.8422C7.45156 10.8547 7.72344 10.8625 8 10.8625C8.27656 10.8625 8.54844 10.8547 8.81563 10.8422C8.54844 11.1938 8.27656 11.5203 8 11.8203ZM5.94531 10.1266C5.49844 10.0703 5.08125 9.99533 4.69063 9.90783C4.80938 9.52658 4.95313 9.12814 5.12813 8.71251C5.25156 8.95001 5.37969 9.18908 5.51875 9.4297C5.65781 9.6672 5.8 9.89845 5.94531 10.1266ZM5.12813 7.28126C4.95313 6.86564 4.80938 6.4672 4.69063 6.08595C5.07969 5.99845 5.49687 5.92345 5.94375 5.8672C5.8 6.0922 5.65625 6.32345 5.51875 6.56408C5.38125 6.8047 5.25156 7.04376 5.12813 7.28126ZM8 4.17345C8.27031 4.46564 8.54375 4.79533 8.81406 5.15314C8.54687 5.14064 8.27656 5.13283 8 5.13283C7.72344 5.13283 7.45312 5.14064 7.18594 5.15314C7.45625 4.79533 7.72969 4.46564 8 4.17345ZM10.4797 6.56408C10.3406 6.32501 10.1984 6.09376 10.0547 5.8672C10.5016 5.92345 10.9188 5.99845 11.3078 6.08595C11.1891 6.4672 11.0453 6.86564 10.8703 7.28126C10.7484 7.04376 10.6188 6.8047 10.4797 6.56408ZM4.8 2.45626C4.9125 2.39064 5.04687 2.35939 5.2 2.35939C5.79062 2.35939 6.64844 2.84533 7.57344 3.74064C7.17344 4.17189 6.775 4.66564 6.38906 5.20939C5.725 5.27033 5.09844 5.36876 4.525 5.50001C4.13281 3.92814 4.25 2.77345 4.8 2.45626ZM1.60156 7.99689C1.60156 7.35939 2.54375 6.68126 4.10156 6.23751C4.275 6.80001 4.50156 7.39064 4.78125 7.99689C4.50313 8.60314 4.275 9.19376 4.10156 9.75626C2.54375 9.31251 1.60156 8.63283 1.60156 7.99689ZM7.00469 12.7703C6.07187 13.5281 5.26875 13.8078 4.8 13.5391C4.24844 13.2203 4.13281 12.0656 4.525 10.4953C5.09844 10.6266 5.72344 10.725 6.38906 10.786C6.77031 11.325 7.16875 11.8188 7.57344 12.2578C7.38438 12.4406 7.19531 12.6156 7.00469 12.7703ZM11.2 13.5391C10.7328 13.8094 9.92813 13.5297 8.99531 12.7703C8.80625 12.6156 8.61563 12.4406 8.425 12.2578C8.83125 11.8188 9.22813 11.325 9.60938 10.786C10.2734 10.725 10.9 10.6266 11.4734 10.4938C11.8672 12.0656 11.75 13.2203 11.2 13.5391ZM11.9 9.75626C11.7266 9.19376 11.5 8.60314 11.2203 7.99689C11.4984 7.39064 11.7266 6.80001 11.9 6.23751C13.4578 6.68283 14.4 7.36095 14.4 7.99689C14.3984 8.63283 13.4562 9.31251 11.9 9.75626Z" fill="#61DAFB"/>
</svg>

<svg xmlns="http://www.w3.org/2000/svg" fill="none" viewBox="0 0 16 16">
  <path
    fill="#61DAFB"
    d="M6.75 8a1.25 1.25 0 1 0 2.5 0 1.25 1.25 0 0 0-2.5 0Z"
  />
  <path
    fill="#61DAFB"
    d="M15 8c0-.98-1.15-1.83-2.94-2.35.45-1.8.3-3.23-.56-3.72-.85-.5-2.16.08-3.5 1.38C6.66 2 5.35 1.44 4.5 1.93c-.85.49-1.01 1.91-.56 3.72C2.14 6.17.99 7.02.99 8s1.16 1.83 2.95 2.34c-.45 1.81-.3 3.23.56 3.73.2.12.44.18.7.18.62 0 1.37-.34 2.19-1 .2-.17.4-.36.61-.56.2.2.4.39.61.55.82.67 1.57 1 2.19 1 .26 0 .5-.05.7-.17.85-.5 1.01-1.92.56-3.73 1.8-.51 2.95-1.36 2.95-2.34Zm-3.8-5.54c.55.32.67 1.47.28 3.04-.58-.13-1.2-.23-1.87-.3-.38-.54-.78-1.03-1.18-1.46.92-.9 1.78-1.38 2.37-1.38.15 0 .29.03.4.1ZM9.95 9.13c-.21.37-.44.73-.67 1.07a16.66 16.66 0 0 1-2.55 0A17.04 17.04 0 0 1 5.44 8a17.64 17.64 0 0 1 1.28-2.21 16.68 16.68 0 0 1 2.55 0 17.32 17.32 0 0 1 1.27 2.2c-.18.38-.38.75-.6 1.14Zm.92-.42c.18.42.32.82.44 1.2-.39.09-.8.16-1.26.22a18.73 18.73 0 0 0 .82-1.42ZM8 11.82c-.28-.3-.55-.63-.82-.98a17.43 17.43 0 0 0 1.64 0c-.27.35-.54.68-.82.98Zm-2.05-1.7c-.45-.05-.87-.12-1.26-.21.12-.38.26-.78.44-1.2a18.17 18.17 0 0 0 .82 1.42Zm-.82-2.84c-.18-.41-.32-.81-.44-1.2.39-.08.8-.16 1.25-.21a16.48 16.48 0 0 0-.81 1.41ZM8 4.18c.27.29.54.62.81.97a17.36 17.36 0 0 0-1.62 0c.27-.35.54-.68.81-.98Zm2.48 2.38-.43-.7c.45.06.87.14 1.26.23-.12.38-.26.78-.44 1.2-.12-.25-.25-.49-.39-.73ZM4.8 2.46c.11-.07.25-.1.4-.1.6 0 1.45.49 2.37 1.38-.4.43-.8.93-1.18 1.47-.67.06-1.3.16-1.86.29-.4-1.57-.28-2.73.27-3.04ZM1.6 8c0-.64.94-1.32 2.5-1.76.18.56.4 1.15.68 1.76-.28.6-.5 1.2-.68 1.76C2.54 9.3 1.6 8.63 1.6 8ZM7 12.77c-.93.76-1.73 1.04-2.2.77-.55-.32-.67-1.47-.27-3.04.57.13 1.2.22 1.86.29.38.54.78 1.03 1.18 1.47-.19.18-.37.36-.57.51Zm4.2.77c-.47.27-1.27-.01-2.2-.77a9.87 9.87 0 0 1-.57-.51c.4-.44.8-.94 1.18-1.47.66-.06 1.29-.16 1.86-.3.4 1.58.28 2.73-.27 3.05Zm.7-3.78c-.17-.57-.4-1.16-.68-1.76.28-.6.5-1.2.68-1.76 1.56.44 2.5 1.12 2.5 1.76 0 .63-.94 1.31-2.5 1.76Z"
  />
</svg>
